img/btnprev.svg

<svg width="27" height="45" viewBox="0 0 27 45" fill="none" xmlns="http://www.w3.org/2000/svg">
<rect width="26.4833" height="44.1389" rx="5" fill="#FFD600"/>
<path d="M7.7674 21.0088C7.18161 21.5946 7.18161 22.5443 7.7674 23.1301L17.3133 32.6761C17.8991 33.2618 18.8489 33.2618 19.4347 32.6761C20.0204 32.0903 20.0204 31.1405 19.4347 30.5547L10.9494 22.0695L19.4347 13.5842C20.0204 12.9984 20.0204 12.0486 19.4347 11.4629C18.8489 10.8771 17.8991 10.8771 17.3133 11.4629L7.7674 21.0088ZM10.7197 20.5695H8.82806V23.5695H10.7197V20.5695Z" fill="#272727"/>
</svg>

<svg width="27" height="45" fill="none" xmlns="http://www.w3.org/2000/svg"><rect width="26.483" height="44.139" rx="5" fill="#FFD600"/><path d="M7.767 21.009a1.5 1.5 0 000 2.121l9.546 9.546a1.5 1.5 0 002.122-2.121l-8.486-8.485 8.486-8.486a1.5 1.5 0 00-2.122-2.121l-9.546 9.546zm2.953-.44H8.828v3h1.892v-3z" fill="#272727"/></svg>
